src/images/social/facebook.svg

<svg width="26" height="51" viewBox="0 0 26 51" fill="none" xmlns="http://www.w3.org/2000/svg">
<path d="M6.75 17.2018H0.5V25.5352H6.75V50.5352H17.1667V25.5352H24.7542L25.5 17.2018H17.1667V13.7289C17.1667 11.7393 17.5667 10.9518 19.4896 10.9518H25.5V0.535156H17.5667C10.075 0.535156 6.75 3.83307 6.75 10.1497V17.2018Z" fill="#333333" fill-opacity="0.72"/>
</svg>

<svg width="26" height="51" fill="none" xmlns="http://www.w3.org/2000/svg"><path d="M6.75 17.202H.5v8.333h6.25v25h10.417v-25h7.587l.746-8.333h-8.333v-3.473c0-1.99.4-2.777 2.323-2.777h6.01V.535h-7.933C10.075.535 6.75 3.833 6.75 10.15v7.052z" fill="#333" fill-opacity=".72"/></svg>
